icons/linear-ele-food-sugar.svg

<svg xmlns="http://www.w3.org/2000/svg" width="32px" height="32px" viewBox="0 0 32 32" version="1.1">
    <title>linear-ele-food-sugar</title>
    <g id="linear-ele-food-sugar" stroke-width="1" fill-rule="evenodd">
        <path d="M23.7781746,1.1507576 L30.8492424,8.22182541 C31.4140053,8.78658833 31.121437,9.75287581 30.3382518,9.90951286 L25.0990089,10.9570089 L25.1923882,11.0502525 C26.7544853,12.6123497 26.7544853,15.1450096 25.1923882,16.7071068 L16.7071068,25.1923882 C15.1450096,26.7544853 12.6123497,26.7544853 11.0502525,25.1923882 L10.9570089,25.0990089 L9.90951286,30.3382518 C9.75287581,31.121437 8.78658833,31.4140053 8.22182541,30.8492424 L1.1507576,23.7781746 C0.585994673,23.2134117 0.878562981,22.2471242 1.66174824,22.0904871 L6.90000887,21.0420089 L6.80761184,20.9497475 C5.24551468,19.3876503 5.24551468,16.8549904 6.80761184,15.2928932 L15.2928932,6.80761184 C16.8549904,5.24551468 19.3876503,5.24551468 20.9497475,6.80761184 L21.0420089,6.90000887 L22.0904871,1.66174824 C22.2471242,0.878562981 23.2134117,0.585994673 23.7781746,1.1507576 Z M8.60000887,22.7420089 L3.88584662,23.6848365 L8.3144564,28.1134463 L9.25700887,23.3990089 L8.60000887,22.7420089 Z M19.9490089,19.1210089 L7.90342656,19.1213399 C7.98901326,19.2694097 8.09514621,19.4088547 8.22182541,19.5355339 L12.4644661,23.7781746 C13.2455147,24.5592232 14.5118446,24.5592232 15.2928932,23.7781746 L19.9490089,19.1210089 Z M24.09662,14.8786186 L10.0500089,14.8780089 L8.22182541,16.7071068 C8.09512322,16.833809 7.98897474,16.9732816 7.90337997,17.1213814 L21.9490089,17.1210089 L23.7781746,15.2928932 C23.9048768,15.166191 24.0110253,15.0267184 24.09662,14.8786186 Z M16.7071068,8.22182541 L12.0500089,12.8780089 L24.0965734,12.8786601 C24.0109867,12.7305903 23.9048538,12.5911453 23.7781746,12.4644661 L19.5355339,8.22182541 C18.7544853,7.44077682 17.4881554,7.44077682 16.7071068,8.22182541 Z M23.6848365,3.88584662 L22.7420089,8.60000887 L23.3990089,9.25700887 L28.1134463,8.3144564 L23.6848365,3.88584662 Z" id="&#24418;&#29366;" fill-rule="nonzero" />
    </g>
</svg>

<svg xmlns="http://www.w3.org/2000/svg" viewBox="0 0 32 32"><path fill="currentColor" d="m23.778 1.15 7.071 7.072a1 1 0 0 1-.51 1.688l-5.24 1.047.093.093a4 4 0 0 1 0 5.657l-8.485 8.485a4 4 0 0 1-5.657 0l-.093-.093-1.047 5.24a1 1 0 0 1-1.688.51L1.15 23.78a1 1 0 0 1 .51-1.689L6.9 21.042l-.092-.092a4 4 0 0 1 0-5.657l8.485-8.485a4 4 0 0 1 5.657 0l.092.092 1.048-5.238a1 1 0 0 1 1.688-.511M8.6 22.743l-4.714.943 4.428 4.428.943-4.714zm11.349-3.621H7.903c.086.148.192.288.319.415l4.242 4.242a2 2 0 0 0 2.829 0zm4.148-4.242-14.047-.001-1.828 1.83a2.003 2.003 0 0 0-.319.413H21.95l1.83-1.828c.126-.127.232-.266.318-.414m-7.39-6.657-4.657 4.656h12.047a2.003 2.003 0 0 0-.319-.414l-4.242-4.242a2 2 0 0 0-2.829 0m6.978-4.336L22.742 8.6l.657.657 4.714-.943z"/></svg>
